X:1
T:Or sus amour
T:Claudin de Sermisy
T:Source : Livre XII de 30 chansons nouvelles à 4 parties---Paris---P.Attaingnant---1543. Editor : André Vierendeels (16/06/18) Notes : Original clefs : G2, C2, C3, F3 Original note values have been halved Editorial accidentals above the staff Square brackets indicate ligatures
T:Or sus amour
T:©
T:©
T:©
T:©
C:Claudin de Sermisy
Z:©
%%score [ 1 2 3 4 ]
L:1/8
Q:1/4=120
M:2/2
K:F
V:1 treble nm="Soprano" snm="S"
V:2 treble nm="Alto" snm="A"
V:3 treble-8 nm="Tenor" snm="T"
V:4 bass nm="Bass" snm="B"
V:1
 G8 | G4 A2 A2- | A2 A2 B2 B2 | G2 B4 AG | F4 z2 A2 | G2 G2 B4 | B4 c4 | c2 B4 A2- | A2 G4 F2 | %9
w: Or|sus, a- mour,|_ puis- que tu|m'as at- * *|taint, que|nat- tains tu|cel- le|pour qui ien-|* du- *|
 G4 z4 | G8 | G4 A2 A2- | A2 A2 B2 B2 | G2 B4 AG | F4 z2 A2 | G2 G2 B4 | B4 c4 | c2 B4 A2- | %18
w: re,|si|mon las cueur|_ pleu- re, sous-|pi- r'et _ _|plaint, se-|ra le sien|en- tier|et sans bles-|
 A2 G4 F2 | G2 B4 B2 | B4 c4- | c4 c4 | d2 d2 c2 f2 | e2 d4 c2 | d4 z2 A2 | B2 B2 G2 d2 | %26
w: * su- *|re, faicz luy|sen- tir|_ ta|grand for- c'et poinc-|tu- * *|re, et|le po- voir de|
 e2 d2 c2 B2 | A4 G4- |[M:2/4] G4 |:[M:2/2] z2 B4 A2 | A4 G4 | z2 G2 G2 G2 | A2 F4 B2- | %33
w: ton dard ri- gou-|* reux,|_|si nous|ren- dras|par es- gal-|le me- su-|
 B2 A2 B2 G2 | G2 G2 F2 B2- | B2 A2 c4 | B2 A4 G2- |"^#" G2 F2 !fermata!G4 :| %38
w: * * re, tous|deux con- tens ou|_ tous ceux|mal- heu- *|* * reux.|
V:2
 D8 | D4 F2 F2- | F2 F2 F4 | _E2 D4 C2 | D2 C2 F4 | E4 D2 D2 | DEFG A2 A2 | F2 G4 F2 | _E2 C2 D4 | %9
w: Or|sus, a- mour,|_ puis- que|tu m'as at-|taint, que nat-|tains tu cel-|le _ _ _ _ pour|qui ien- du-||
 B,4 z4 | D8 | D4 F2 F2- | F2 F2 F4 | _E2 D4 C2 | D2 C2 F4 | E4 D2 D2 | DEFG A2 A2 | F2 G4 F2 | %18
w: re,|si|mon las cueur|_ pleu- re,|sous- pi- r'et|plaint, se- ra|le sien en|en _ _ _ _ tier|et sans bles-|
 _E2 C2 D4 | D4 z2 G2- | G2 G2 G4 | A4 A4 | A6 F2 | B2 G2 A4 | F4 z2 F2 | G2 G2 D4 | G4 G4 | %27
w: su- * *|re, faicz|_ luy sen-|tir ta|grand for-|c'et pounc- tu-|re, et|le po- voir|de ton|
"^-natural" E2 F2 D4 |[M:2/4] E4 |:[M:2/2] z2 G4 F2 | F4 D4 | z2 D2 D2 E2 | F2 C2 D3 C/B,/ | %33
w: dard ri- gou-|reux,|si nous|ren- dras|par es- gal-|le me- su- * *|
 C4 B,2 D2 |"^b" E2 C2 D2 F2- | F2 F2 G4- | G2 E2 FEDC | D4 !fermata!D4 :| %38
w: * re, tous|deux con- tens ou|_ tous deux|_ mal- heu- * * *|* reux.|
V:3
 G8 | B4 d2 c2- | c2 c2 d2 d2 | B4 G4 | A4 z2 c2 | c2 c2 G4 | z2 d2 f2 f2 |"^b" c2 e2 d3 c | %8
w: Or|sus, a- mour,|_ puis- que tu|m'as at-|taint, que|nat- tains tu|cel- le pour|qui ien- du- *|
 B2 AG A4 | G4 z4 | G8 | B4 d2 c2- | c2 c2 d2 d2 | B4 G4 | A4 z2 c2 | c2 c2 G4 | z2 d2 f2 f2 | %17
w: |re,|si|mon la cueur|_ pleu- re, sous-|pi- r'et|plaint, se-|ra le sien|en- tier et|
"^b" c2 e2 d3 c | B2 AG A4 | G4 z2 d2- | d2 d2 e4 | f4 z2 f2 | f2 f2 e2 d2 | gfed e4 | d4 z2 d2 | %25
w: sans bles- su- *||re, faicz|_ luy sen-|tir ta|grand for- c'et poinc-|tu- * * * *|re, et|
 d2 d2 B4 | z2 d2 _e2 d2- |"^-natural" d2 c4 B2 |[M:2/4] c4 |:[M:2/2] z2 d4 d2 | c4 B4 | %31
w: le po- voir|de ton dard|_ ri- gou-|reux,|si nous|ren- dras|
 z2 G2 B2 B2 | c2 A2 B4 | F4 z2 B2 | B2 G2 A2 d2- | d2 c2 e4 | d2 c4 B2 | A4 !fermata!G4 :| %38
w: par es- gal-|le me- su-|re, tous|deux con- tens ou|_ tous deux|mal- heu- *|* reux.|
V:4
 G,8 | G,4 D,2 F,2- | F,2 F,2 B,,2 B,,2 | _E,4 E,4 | D,2 F,2 F,2 F,2 | C,4 z2 G,2 | %6
w: Or|sus, a- mour,|_ puis- que tu|m'as at-|taint, que nat- tains|tu cel-|
 B,2 B,2 F,E,F,G, | A,2 G,4 D,2 |"^b" E,4 D,4 | G,4 z4 | G,8 | G,4 D,2 F,2- | F,2 F,2 B,,2 B,,2 | %13
w: le pour qui _ _ _|_ ien- du-||re,|si|mon las cueur|_ pleu- re, sous-|
 _E,4 E,4 | D,2 F,2 F,2 F,2 | C,4 z2 G,2 | B,2 B,2 F,E,F,G, | A,2 G,4 D,2 | _E,4 D,4 | %19
w: pi- r'et|plaint, se- ra en-|tier le|sien et sans _ _ _|_ bles- su-|* re,|
"^#" z2 G,4 G,2 | G,4 C4 | F,4 F,2 F,2 | D,E,F,G, A,2 B,2 | G,2 B,2 A,4 | z2 D,2 D,2 D,2 | G,8 | %26
w: faicz luy|sen- tir|ta grand for-|c'et _ _ _ _ poinc-|tu- * re,,|et le po-|voir|
 G,4 C,2 G,2 | A,2 F,2 G,4 |[M:2/4] C,4 |:[M:2/2] z2 G,4 D,2 | F,4 G,2 G,2 | B,2 B,2 G,2 G,2 | %32
w: de ton dard|ri- * gou-|reux,|si nous|ren- dras par|es- gal- le me-|
 F,4 B,,4 | z2 F,2 G,4 | _E,4 D,2 B,,C, |"^-natural" D,E, F,2 C,D,E,F, | G,2 A,2 F,2 G,2 | %37
w: su- re,|tous deux|con- tens ou _|_ _ _ tous _ _ _|_ deux mal- *|
 D,4 !fermata!G,4 :| %38
w: heu- reux.|

